X:1
T:Westphalia Waltz
M:3/4
L:1/4
K:D
|A|:"D"D2 E|"F#m"F2 B|"Bm"A3-|"D"A2 A,
|D2 E|F3/2 G/2 A|"A"C3-|C2 A,|C2 D
|E2 d|"A7"c3-|c2 B|1A2 ^G/2A/2|B A G
|"D"F3-|F2 A,:|2A2 F|G F E|"D"D3-|D2 z||
|:"D"d3/2 z/2 (3ddd|"F#m"c3/2 z/2 (3ccc|"Bm"B c d|"D"F3
|F E D|F E D|"Em"G3-|"A7"G3|"Em"B3/2 z/2 (3BBB
|"A7"B3/2 z/2 (3BBB|"Em"B c d|"A7"c2 B|1A2 A|B A G
|"D"F3-F3:|2A E F|G F E|"D"D3-|D2||
